X:1
T:Title
%%score { ( 1 4 ) | ( 2 3 ) }
L:1/8
M:4/4
K:Ab
V:1 treble nm="Grand Piano"
V:4 treble 
V:2 bass 
V:3 bass 
V:1
 z4 z2[Q:1/4=106] [CE]2 | [CA]2 [CA]G F2 F2 | [=DB]2 BA G2 E2 | FG[CA]B A2 G2 |[M:3/4] [CA]6 | %5
[M:1/4] [CE]2 |[M:4/4] B2 BA G2 E2 | c2 cB A2 [Ec]2 | [EB]2 [FA]2 [EG]2 [=DF]2 |[M:3/4] E6 | %10
[M:1/4] EE |[M:4/4] [CA]4[K:bass] z4[K:treble] | B4 E2 cc | d2 c2 B2 =A2 |[M:3/4] B6 |[M:1/4] EE | %16
[M:4/4] A4 B4 |[M:9/8] .c6[K:bass][K:treble] z3 |[M:4/4] [Ae]3 d c2 B2 |[M:3/4] [CA]6 |] %20
V:2
 z4 z2 [A,,A,]2 | [A,,A,]2 z E [D,A,D]2 [D,A,D]2 | [B,,B,]2 [B,,B,]2 [E,B,E]2 [E,G,]2 | %3
 DB, z D [E,C]2 [E,D]2 |[M:3/4] [A,,E,]6 |[M:1/4] [A,,A,]2 | %6
[M:4/4] [E,G,D]2 [G,D][A,C] [E,B,D]2 [E,G,]2 | [A,E]2 ED [A,C]2 [A,,A,]2 | %8
 [B,,G,]2 [B,,B,]2 [B,,B,]2 [B,,A,]2 |[M:3/4] [E,G,]6 |[M:1/4] [E,G,D][E,G,D] | %11
[M:4/4] [A,,A,]2 A,,2 A,,2 [C,A,]2 | [E,G,E]4 [E,G,]2 [E,A,E][E,A,E] | %13
 [E,B,E]2 [E,A,E]2 [E,G,E]2 [E,_G,E]2 |[M:3/4] [E,G,E]6 |[M:1/4] [E,G,D][E,G,D] | %16
[M:4/4] [A,,A,]2 [C,A,]2 [E,G,E]2 [G,B,]2 |[M:9/8] [A,E]3- [A,E] [F,A,D]2- [F,A,D][=E,_C][E,C] | %18
[M:4/4] [E,C]3 [E,B,E] [E,A,E]2 [E,G,D]2 |[M:3/4] [A,,A,]6 |] %20
V:3
 x8 | z2 [A,,A,]2 z4 | x8 | E,2 E,2 z4 |[M:3/4] x6 |[M:1/4] x2 |[M:4/4] z2 E,2 z4 | z2 A,2 z4 | %8
 x8 |[M:3/4] x6 |[M:1/4] x2 |[M:4/4] x8 | x8 | x8 |[M:3/4] x6 |[M:1/4] x2 |[M:4/4] x8 |[M:9/8] x9 | %18
[M:4/4] x8 |[M:3/4] x6 |] %20
V:4
 x8 | x8 | z2 =D2 z4 | x8 |[M:3/4] x6 |[M:1/4] x2 |[M:4/4] x8 | x8 | x8 |[M:3/4] x6 |[M:1/4] x2 | %11
[M:4/4] z2[K:bass] E,2 [A,CE]2[K:treble] E2 | x8 | x8 |[M:3/4] x6 |[M:1/4] x2 | %16
[M:4/4] C2 E2 z2 E2 |[M:9/8] z2[K:bass] _G,- G,[K:treble] d2- d[A=d][Ad] |[M:4/4] x8 |[M:3/4] x6 |] %20

